X: 1
T:Lilies in the Field ()
M:4/4
L:1/8
Q:1/8=120
S:Peter MacDonald  tradtunes 2003-8-12
S:Charlie Piggott
R:reel
K:D
|: d2 AG FD (3DDD | EFGE ABcA | d2 AG FD (3DDD | EAGE D2 FA :|
|: Ac (3ccc Ad (3ddd | ABcA BAGE | Ac (3ccc Ad (3ddd | ABcA BAGE | dcde fded | cAGE D4 :|
